icons/.local/share/icons/Tela/scalable/apps/gnome-subtitles.svg

<svg width="64" height="64" version="1.1" viewBox="0 0 16.933 16.933" xmlns="http://www.w3.org/2000/svg">
 <defs>
  <linearGradient id="h" x1=".639" x2=".639" y1=".99" y2=".033" gradientTransform="matrix(38.364 0 0 28.735 -6.1952 -5.6142)" gradientUnits="userSpaceOnUse">
   <stop stop-color="#fcfafb" offset=".02174"/>
   <stop stop-color="#f0dfe5" offset="1"/>
  </linearGradient>
 </defs>
 <circle cx="8.4665" cy="8.46" r="7.1436" fill="#f88e45" style="paint-order:stroke markers fill"/>
 <circle cx="8.4665" cy="8.46" r="6.0853" fill="#fff" opacity=".1" style="paint-order:stroke markers fill"/>
 <g transform="matrix(.22069 0 0 .22069 5.6005 6.5347)" stroke-width="1.1989">
  <path d="m32.169 15.448v-12.563c0-1.6846-0.31802-2.8966-0.93846-3.6353-0.59107-0.70933-1.743-1.0729-3.4572-1.0729h-4.0708l-5.3688-3.7901-5.3691 3.7901h-14.764c-1.7139 0-2.8659 0.36353-3.457 1.0729-0.6207 0.7387-0.93846 1.9507-0.93846 3.6353v12.563z" fill="#fff" opacity=".5" style="isolation:isolate"/>
  <path d="m27.773 23.12c1.7142 0.02143 2.8659-0.38311 3.457-1.0924 0.6207-0.73897 0.93872-1.951 0.93872-3.6356v-14.917l-8.4665-5.2995-5.3691-3.7898-5.3688 3.7898-19.159 14.548v5.6683c0 1.6846 0.31802 2.8966 0.93872 3.6356 0.59107 0.70933 1.7425 1.0924 3.4567 1.0924z" fill="url(#h)" style="isolation:isolate"/>
  <path d="m24.496 15.448v-1.9182h-23.018v1.9182zm0-5.7546v-1.9182h-11.509v1.9182z" fill="#e67f54" style="isolation:isolate"/>
  <path d="m27.773 23.12c1.7142 0.02143 2.8662-0.38337 3.4572-1.0927 0.62044-0.7387 0.93846-1.951 0.93846-3.6356v-0.47942c0 1.6846-0.31802 2.8966-0.93846 3.6356-0.59107 0.70907-1.743 1.1139-3.4572 1.0924h-29.573c-1.7139 0-2.8659-0.38337-3.457-1.0924-0.6207-0.73897-0.93846-1.951-0.93846-3.6356v0.47942c0 1.6848 0.31776 2.8969 0.93846 3.6356 0.59107 0.70933 1.743 1.0927 3.457 1.0927z" fill="#fff" style="isolation:isolate"/>
 </g>
</svg>

<svg xmlns="http://www.w3.org/2000/svg" width="64" height="64" viewBox="0 0 16.933 16.933"><defs><linearGradient id="a" x1=".639" x2=".639" y1=".99" y2=".033" gradientTransform="matrix(38.364 0 0 28.735 -6.195 -5.614)" gradientUnits="userSpaceOnUse"><stop offset=".022" stop-color="#fcfafb"/><stop offset="1" stop-color="#f0dfe5"/></linearGradient></defs><circle cx="8.466" cy="8.46" r="7.144" fill="#f88e45" style="paint-order:stroke markers fill"/><circle cx="8.466" cy="8.46" r="6.085" fill="#fff" opacity=".1" style="paint-order:stroke markers fill"/><g stroke-width="1.199"><path fill="#fff" d="M32.169 15.448V2.885c0-1.685-.318-2.897-.938-3.635-.592-.71-1.743-1.073-3.458-1.073h-4.07l-5.37-3.79-5.368 3.79H-1.8c-1.714 0-2.866.363-3.457 1.073-.621.738-.939 1.95-.939 3.635v12.563z" opacity=".5" style="isolation:isolate" transform="translate(5.6 6.535)scale(.22069)"/><path fill="url(#a)" d="M27.773 23.12c1.714.021 2.866-.383 3.457-1.092.62-.74.939-1.951.939-3.636V3.475l-8.467-5.3-5.369-3.79-5.369 3.79-19.159 14.549v5.668c0 1.684.318 2.896.939 3.635.591.71 1.743 1.093 3.457 1.093z" style="isolation:isolate" transform="translate(5.6 6.535)scale(.22069)"/><path fill="#e67f54" d="M24.496 15.448V13.53H1.478v1.918zm0-5.755V7.775H12.987v1.918z" style="isolation:isolate" transform="translate(5.6 6.535)scale(.22069)"/><path fill="#fff" d="M27.773 23.12c1.714.021 2.866-.383 3.457-1.093.62-.738.939-1.95.939-3.635v-.48c0 1.685-.318 2.897-.939 3.636-.59.709-1.743 1.114-3.457 1.092H-1.8c-1.714 0-2.866-.383-3.457-1.092-.62-.74-.938-1.951-.938-3.636v.48c0 1.685.317 2.897.938 3.635.591.71 1.743 1.093 3.457 1.093z" style="isolation:isolate" transform="translate(5.6 6.535)scale(.22069)"/></g></svg>
